Simply-Cyan-Circles/scalable/devices/pda.svg

<svg xmlns="http://www.w3.org/2000/svg" width="48" height="48" viewBox="0 0 12.7 12.7"><path d="M6.344.073a6.29 6.29 0 0 0-6.29 6.29 6.29 6.29 0 0 0 6.29 6.288 6.29 6.29 0 0 0 6.29-6.289 6.29 6.29 0 0 0-6.29-6.29zm-.018.936a5.407 5.407 0 0 1 5.407 5.407 5.407 5.407 0 0 1-5.407 5.407A5.407 5.407 0 0 1 .92 6.416 5.407 5.407 0 0 1 6.326 1.01zM4.178 2.445c-.923 0-1.618.686-1.618 1.54v5.132c0 .853.695 1.54 1.618 1.54h3.886c.923 0 1.666-.687 1.666-1.54V5.735L8.716 7.212v1.905c0 .285-.247.513-.555.513H4.097a.506.506 0 0 1-.523-.513V3.984c0-.284.216-.513.524-.513h3.931l.678-.898a1.836 1.836 0 0 0-.642-.128H4.178zm5.06.529s-1.293 1.8-2.074 3.063l-.722.6.02.808-.393.638h.358l.38-.3.86-.237.305-.76L10.12 3.52l-.882-.545z" fill="#5beedc"/></svg>

<?xml version="1.0" encoding="UTF-8" standalone="no"?>
<svg
   xmlns:dc="http://purl.org/dc/elements/1.1/"
   xmlns:cc="http://creativecommons.org/ns#"
   xmlns:rdf="http://www.w3.org/1999/02/22-rdf-syntax-ns#"
   xmlns:svg="http://www.w3.org/2000/svg"
   xmlns="http://www.w3.org/2000/svg"
   xmlns:sodipodi="http://sodipodi.sourceforge.net/DTD/sodipodi-0.dtd"
   xmlns:inkscape="http://www.inkscape.org/namespaces/inkscape"
   width="48"
   height="48"
   viewBox="0 0 12.7 12.7"
   version="1.1"
   id="svg4"
   sodipodi:docname="pda.svg"
   inkscape:version="0.92.4 (5da689c313, 2019-01-14)">
  <metadata
     id="metadata10">
    <rdf:RDF>
      <cc:Work
         rdf:about="">
        <dc:format>image/svg+xml</dc:format>
        <dc:type
           rdf:resource="http://purl.org/dc/dcmitype/StillImage" />
        <dc:title></dc:title>
      </cc:Work>
    </rdf:RDF>
  </metadata>
  <defs
     id="defs8" />
  <sodipodi:namedview
     pagecolor="#ffffff"
     bordercolor="#666666"
     borderopacity="1"
     objecttolerance="10"
     gridtolerance="10"
     guidetolerance="10"
     inkscape:pageopacity="0"
     inkscape:pageshadow="2"
     inkscape:window-width="1087"
     inkscape:window-height="480"
     id="namedview6"
     showgrid="false"
     inkscape:zoom="4.9166667"
     inkscape:cx="2.1355932"
     inkscape:cy="24"
     inkscape:window-x="0"
     inkscape:window-y="25"
     inkscape:window-maximized="0"
     inkscape:current-layer="svg4" />
  <path
     d="m 6.344,0.073 a 6.29,6.29 0 0 0 -6.29,6.29 6.29,6.29 0 0 0 6.29,6.288 6.29,6.29 0 0 0 6.29,-6.289 6.29,6.29 0 0 0 -6.29,-6.29 z M 6.326,1.009 A 5.407,5.407 0 0 1 11.733,6.416 5.407,5.407 0 0 1 6.326,11.823 5.407,5.407 0 0 1 0.92,6.416 5.407,5.407 0 0 1 6.326,1.01 Z M 4.178,2.445 c -0.923,0 -1.618,0.686 -1.618,1.54 v 5.132 c 0,0.853 0.695,1.54 1.618,1.54 h 3.886 c 0.923,0 1.666,-0.687 1.666,-1.54 V 5.735 L 8.716,7.212 V 9.117 C 8.716,9.402 8.469,9.63 8.161,9.63 H 4.097 A 0.506,0.506 0 0 1 3.574,9.117 V 3.984 C 3.574,3.7 3.79,3.471 4.098,3.471 H 8.029 L 8.707,2.573 A 1.836,1.836 0 0 0 8.065,2.445 Z m 5.06,0.529 c 0,0 -1.293,1.8 -2.074,3.063 l -0.722,0.6 0.02,0.808 -0.393,0.638 H 6.427 L 6.807,7.783 7.667,7.546 7.972,6.786 10.12,3.52 9.238,2.975 Z"
     id="path2"
     inkscape:connector-curvature="0"
     style="fill:#5beedc" />
</svg>
